X: 2232
Q: "Irish Jig."
M: 6/8
L: 1/8
K: G
uD |\
vG2vG uG2uG | F2E D2F | G2G G2A | (B3 d2) uD |\
vG2vG uG2uG | F2E D2F | BdB AFD | vE2vF G2 :|
|: D |\
vG2vB BdB | BdB BAG | dcB AFD | E2F G2 :|


